blockchains/near/logo.svg

<svg fill="none" height="250" viewBox="0 0 250 250" width="250" xmlns="http://www.w3.org/2000/svg" xmlns:xlink="http://www.w3.org/1999/xlink"><clipPath id="a"><path d="m0 0h250v250h-250z"/></clipPath><clipPath id="b"><path d="m52.0833 52.0859h145.833v145.833h-145.833z"/></clipPath><g clip-path="url(#a)"><path d="m250 125c0 69.05-55.95 125-125 125s-125-55.95-125-125 55.95-125 125-125 125 55.95 125 125z" fill="#fff"/><g clip-path="url(#b)"><path d="m168.954 59.6094-30.45 45.1496c-2.1 3.063 1.954 6.796 4.842 4.2l29.954-26.0455c.817-.6416 1.954-.175 1.954.9625v81.404c0 1.138-1.458 1.604-2.1.817l-90.6499-108.4418c-2.9167-3.5583-7.1167-5.4833-11.8125-5.4833h-3.2375c-8.4 0-15.3708 6.9416-15.3708 15.5458v114.5963c0 8.575 6.9708 15.545 15.5458 15.545 5.3375 0 10.3542-2.741 13.2708-7.437l30.4211-45.15c2.1-3.063-1.954-6.796-4.842-4.2l-29.9541 25.842c-.8166.641-1.9541.175-1.9541-.963v-81.2583c0-1.1375 1.4583-1.6042 2.1-.8167l90.6502 108.442c2.916 3.558 7.291 5.512 11.812 5.512h3.238c8.575 0 15.546-6.971 15.546-15.546v-114.5663c0-8.575-6.971-15.5458-15.546-15.5458-5.484 0-10.5 2.7416-13.417 7.4375z" fill="#000"/></g></g></svg>

<svg width="250" height="250" viewBox="0 0 250 250" fill="none" xmlns="http://www.w3.org/2000/svg">
<g clip-path="url(#clip0_47_12246)">
<path d="M250 125C250 194.05 194.05 250 125 250C55.95 250 0 194.05 0 125C0 55.95 55.95 0 125 0C194.05 0 250 55.95 250 125Z" fill="white"/>
<g clip-path="url(#clip1_47_12246)">
<path d="M168.954 59.6094L138.504 104.759C136.404 107.822 140.458 111.555 143.346 108.959L173.3 82.9135C174.117 82.2719 175.254 82.7385 175.254 83.876V165.28C175.254 166.418 173.796 166.884 173.154 166.097L82.5041 57.6552C79.5874 54.0969 75.3874 52.1719 70.6916 52.1719H67.4541C59.0541 52.1719 52.0833 59.1135 52.0833 67.7177V182.314C52.0833 190.889 59.0541 197.859 67.6291 197.859C72.9666 197.859 77.9833 195.118 80.8999 190.422L111.321 145.272C113.421 142.209 109.367 138.476 106.479 141.072L76.5249 166.914C75.7083 167.555 74.5708 167.089 74.5708 165.951V84.6927C74.5708 83.5552 76.0291 83.0885 76.6708 83.876L167.321 192.318C170.237 195.876 174.612 197.83 179.133 197.83H182.371C190.946 197.83 197.917 190.859 197.917 182.284V67.7177C197.917 59.1427 190.946 52.1719 182.371 52.1719C176.887 52.1719 171.871 54.9135 168.954 59.6094Z" fill="black"/>
</g>
</g>
<defs>
<clipPath id="clip0_47_12246">
<rect width="250" height="250" fill="white"/>
</clipPath>
<clipPath id="clip1_47_12246">
<rect width="145.833" height="145.833" fill="white" transform="translate(52.0833 52.0859)"/>
</clipPath>
</defs>
</svg>
